X:1
T:Venite exultemus
T:Venite exultemus
T:John Farmer
T:Source : The Whole Book of Psalms---London---Musical Antquarian Society---1844. First publication : London---Th.Est(e)---1592. Editor : André Vierendeels (21/08/16).
T:Notes : Original clefs : C&, C3, C4, F4 Editorial accidentals above the staff Text after psalm 94 (95)
T:©
T:©
T:©
C:John Farmer
Z:©
%%score [ 1 [ 2 3 ] 4 ]
L:1/8
Q:1/4=120
M:4/4
K:F
V:1 treble nm="Soprano" snm="S"
V:2 treble-8 nm="Tenor 1" snm="T 1"
V:3 treble-8 nm="Tenor 2" snm="T 2"
V:4 bass nm="Bass" snm="B"
V:1
 C8 | D4 E4 | F8 | E4 F4- | F4 F4 | F8 || F4 G4- | G2 F2 F4 | F4 E4 | F8 || D4 F4- | F4 G4 | %12
w: 1. O,|come and|let|us now|_ re-|joice,|and sing|_ _ un-|to the|Lord,|and to|_ our|
 G4 A4 | G4 F4 | E8 || F4 B4- | B4 B4 | A4 G4 | F8 || F8 | c4 c4 | A4 A4 | A4 G4 | G8 || A8 | %25
w: on- ly|Sa- *|vior,|al- so|_ with|one ac-|cord,|2. O,|let us|come be-|fore his|face,|with|
 G4 A4 | G4 G4 | ^F8 ||"^-natural" D4 F4- | F4 E4 | G4 F4 | E4 D4 | ^C8 || D4 E4- | E4 F4 | %35
w: in- ward|re- ve-|rence,|con- fes-|* sing|all our|for- mer|sins,|and that|_ with|
 G4 F4- | F4 E4 | !fermata!F8 |] %38
w: di- *|* li-|gence.|
V:2
 A8 | F4 c4 | A8 | c4 c4- | c4 c4 | d8 || d4 d4- | d4 c4 | d4 c4 | A8 || B8 | c4 B4 | G4 c4- | %13
w: 1. O,|come and|let|us now|_ re-|joice,|and sing|_ un-|to the|Lord|and|to our|on- ly|
 c4 c4 | c8 || A4 G4 | _e4 d4 | c6 B2 | A8 || c4 f4- | f4 e4 | d4 c4 | c4 =B4 | c8 || f8 | e4 f4 | %26
w: _ Sa-|vior,|al- so|_ with|one ac-|cord,|2. O, let|_ us|come be-|fore his|face,|with|in ward|
 d4 _e4 | d8 ||"^-natural" f8 | c4 c4 | d4 c4 | c4 A4 | A8 || A4 c4- | c4 c4 | d8 | c8 | %37
w: re- ve-|rence,|con-|fess- sing|all our|for- mer|sins,|and that|_ with|di-|li-|
 !fermata!A8 |] %38
w: gence.|
V:3
 F8 | D4 C4 | F8 | G4 A4- | A4 A4 | F8 || F4 B4- | B4 A4 | G4 G4 | F8 || F8 | C4 D4 | E4 F4 | %13
w: 1. O,|come and|let|us now|_ re-|joice,|and sing|_ un-|to the|Lord,|and|to our|on- ly|
 G4 A4 | G8 || F4 G4- | G4 F4 | F4 E4 | F8 || A8 | A4 G4 | F4 E4 | D4 D4 | C8 || c8 | c4 A4 | %26
w: Sa- *|vior,|al- so|_ with|one ac-|cord,|2. O,|let us|come be-|fore his|face,|with|in ward|
 B4 c4 | A8 || A8 | A4 G4 | B4 A4 | G4 F4 | E8 || F4 G4- | G4 A4 | B8 | G8 | !fermata!F8 |] %38
w: re- ve-|rence,|con-|fess- sing|all our|for- mer|sins,|and that|_ with|di-|li-|gence.|
V:4
 F,,8 | B,,4 A,,4 | D,8 | C,4 F,4- | F,4 F,,4 | B,,8 || B,,4 G,,4- | G,,4 A,,4 | B,,4 C,4 | F,,8 || %10
w: 1. O,|come and|let|us now|_ re-|joice,|and sing|_ un-|to the|Lord,|
 B,,8 | A,,4 G,,4 | C,4 F,,4 | C,4 F,4 | C,8 || D,4 _E,4- | E,4 B,,4 | C,4 C,4 | F,,8 || F,8 | %20
w: and|ti our|on- ly|Sa- *|vior,|al- so|_ with|one ac-|cord,|2. O,|
 F,4 C,4 | D,4 A,,4 | F,,4 G,,4 | C,8 || F,8 | C,4 F,4 | G,4 C,4 | D,8 || D,8 | F,4 C,4 | %30
w: let us|come be-|fore his|face,|with|in ward|re- ve-|rence,|con-|fes- sing|
 B,,4 F,,4 | C,4 D,4 | A,,8 || D,4 C,4- | C,4 F,4 | B,,8 | C,8 | !fermata!F,,8 |] %38
w: all our|for- mer|sins,|and that|_ with|di-|li-|gence.|

